src/assets/transitions/attendance/attendanceSpacer1.svg

<svg xmlns="http://www.w3.org/2000/svg" width="900" height="200"><path fill="#001220" d="M0 0h900v200H0z"/><path fill="#330a00" d="m0 130 11.5.3c11.5.4 34.5 1 57.5.5s46-2.1 69.2-3.5c23.1-1.3 46.5-2.3 69.6-.8C231 128 254 132 277 128.7c23-3.4 46-14 69-15.4 23-1.3 46 6.7 69.2 8.4 23.1 1.6 46.5-3 69.6-3.4 23.2-.3 46.2 3.7 69.2 6.9 23 3.1 46 5.5 69 6s46-.9 69.2-5c23.1-4.2 46.5-11.2 69.6-16.5 23.2-5.4 46.2-9 69.2-7s46 9.6 57.5 13.5L900 120V0H0Z"/><path fill="#460e0e" d="m0 108 11.5-2C23 104 46 100 69 98.5s46-.5 69.2 1c23.1 1.5 46.5 3.5 69.6 5.7 23.2 2.1 46.2 4.5 69.2 1.1 23-3.3 46-12.3 69-13.6 23-1.4 46 5 69.2 6 23.1 1 46.5-3.4 69.6-3.5C508 95 531 99 554 99.5s46-2.5 69-3 46 1.5 69.2 4.3c23.1 2.9 46.5 6.5 69.6 4.7 23.2-1.8 46.2-9.2 69.2-12.2s46-1.6 57.5-1l11.5.7V0H0Z"/><path fill="#5b1218" d="m0 99 11.5-.2C23 98.7 46 98.3 69 94.3s46-11.6 69.2-13.6c23.1-2 46.5 1.6 69.6 5.3 23.2 3.7 46.2 7.3 69.2 9.2 23 1.8 46 1.8 69-2.5 23-4.4 46-13 69.2-17 23.1-4 46.5-3.4 69.6-4.2 23.2-.8 46.2-3.2 69.2-2s46 5.8 69 10.2c23 4.3 46 8.3 69.2 11.1 23.1 2.9 46.5 4.5 69.6 2.5 23.2-2 46.2-7.6 69.2-11.5 23-3.8 46-5.8 57.5-6.8l11.5-1V0H0Z"/><path fill="#711423" d="m0 71 11.5-.7c11.5-.6 34.5-2 57.5-4.5s46-6.1 69.2-3.6c23.1 2.5 46.5 11.1 69.6 10.5C231 72 254 62 277 57.8c23-4.1 46-2.5 69 1.5s46 10.4 69.2 13.7c23.1 3.3 46.5 3.7 69.6 4 23.2.3 46.2.7 69.2-3.7 23-4.3 46-13.3 69-13.5 23-.1 46 8.5 69.2 13.2 23.1 4.7 46.5 5.3 69.6 3.3 23.2-2 46.2-6.6 69.2-7.1s46 3.1 57.5 5L900 76V0H0Z"/><path fill="#88152f" d="m0 51 11.5-.7c11.5-.6 34.5-2 57.5-2.1 23-.2 46 .8 69.2 2.8 23.1 2 46.5 5 69.6 4.5C231 55 254 51 277 51.7c23 .6 46 6 69 5.5s46-6.9 69.2-7.2c23.1-.3 46.5 5.3 69.6 5 23.2-.3 46.2-6.7 69.2-7.2s46 4.9 69 7.2 46 1.7 69.2 1.8c23.1.2 46.5 1.2 69.6-1.6C785 52.3 808 45.7 831 45s46 4.7 57.5 7.3L900 55V0H0Z"/><path fill="#9f163d" d="m0 44 11.5-2C23 40 46 36 69 32.8c23-3.1 46-5.5 69.2-4.8 23.1.7 46.5 4.3 69.6 5.7C231 35 254 34 277 35.2c23 1.1 46 4.5 69 5.6 23 1.2 46 .2 69.2 0 23.1-.1 46.5.5 69.6-2 23.2-2.5 46.2-8.1 69.2-7.5 23 .7 46 7.7 69 10.2s46 .5 69.2-.7c23.1-1.1 46.5-1.5 69.6-4.1C785 34 808 29 831 26.8c23-2.1 46-1.5 57.5-1.1l11.5.3V0H0Z"/><path fill="#b7154c" d="m0 21 11.5.5C23 22 46 23 69 22.3c23-.6 46-3 69.2-3.3 23.1-.3 46.5 1.3 69.6 2.3 23.2 1 46.2 1.4 69.2 1 23-.3 46-1.3 69-1.6 23-.4 46 0 69.2-.7 23.1-.7 46.5-2.3 69.6-1.2C508 20 531 24 554 24s46-4 69-4.8c23-.9 46 1.5 69.2 1.8 23.1.3 46.5-1.3 69.6-2.8 23.2-1.5 46.2-2.9 69.2-3.9s46-1.6 57.5-2L900 12V0H0Z"/></svg>

<svg id="visual" viewBox="0 0 900 200" width="900" height="200" xmlns="http://www.w3.org/2000/svg" xmlns:xlink="http://www.w3.org/1999/xlink" version="1.1"><rect x="0" y="0" width="900" height="200" fill="#001220"></rect><path d="M0 130L11.5 130.3C23 130.7 46 131.3 69 130.8C92 130.3 115 128.7 138.2 127.3C161.3 126 184.7 125 207.8 126.5C231 128 254 132 277 128.7C300 125.3 323 114.7 346 113.3C369 112 392 120 415.2 121.7C438.3 123.3 461.7 118.7 484.8 118.3C508 118 531 122 554 125.2C577 128.3 600 130.7 623 131.2C646 131.7 669 130.3 692.2 126.2C715.3 122 738.7 115 761.8 109.7C785 104.3 808 100.7 831 102.7C854 104.7 877 112.3 888.5 116.2L900 120L900 0L888.5 0C877 0 854 0 831 0C808 0 785 0 761.8 0C738.7 0 715.3 0 692.2 0C669 0 646 0 623 0C600 0 577 0 554 0C531 0 508 0 484.8 0C461.7 0 438.3 0 415.2 0C392 0 369 0 346 0C323 0 300 0 277 0C254 0 231 0 207.8 0C184.7 0 161.3 0 138.2 0C115 0 92 0 69 0C46 0 23 0 11.5 0L0 0Z" fill="#330a00"></path><path d="M0 108L11.5 106C23 104 46 100 69 98.5C92 97 115 98 138.2 99.5C161.3 101 184.7 103 207.8 105.2C231 107.3 254 109.7 277 106.3C300 103 323 94 346 92.7C369 91.3 392 97.7 415.2 98.7C438.3 99.7 461.7 95.3 484.8 95.2C508 95 531 99 554 99.5C577 100 600 97 623 96.5C646 96 669 98 692.2 100.8C715.3 103.7 738.7 107.3 761.8 105.5C785 103.7 808 96.3 831 93.3C854 90.3 877 91.7 888.5 92.3L900 93L900 0L888.5 0C877 0 854 0 831 0C808 0 785 0 761.8 0C738.7 0 715.3 0 692.2 0C669 0 646 0 623 0C600 0 577 0 554 0C531 0 508 0 484.8 0C461.7 0 438.3 0 415.2 0C392 0 369 0 346 0C323 0 300 0 277 0C254 0 231 0 207.8 0C184.7 0 161.3 0 138.2 0C115 0 92 0 69 0C46 0 23 0 11.5 0L0 0Z" fill="#460e0e"></path><path d="M0 99L11.5 98.8C23 98.7 46 98.3 69 94.3C92 90.3 115 82.7 138.2 80.7C161.3 78.7 184.7 82.3 207.8 86C231 89.7 254 93.3 277 95.2C300 97 323 97 346 92.7C369 88.3 392 79.7 415.2 75.7C438.3 71.7 461.7 72.3 484.8 71.5C508 70.7 531 68.3 554 69.5C577 70.7 600 75.3 623 79.7C646 84 669 88 692.2 90.8C715.3 93.7 738.7 95.3 761.8 93.3C785 91.3 808 85.7 831 81.8C854 78 877 76 888.5 75L900 74L900 0L888.5 0C877 0 854 0 831 0C808 0 785 0 761.8 0C738.7 0 715.3 0 692.2 0C669 0 646 0 623 0C600 0 577 0 554 0C531 0 508 0 484.8 0C461.7 0 438.3 0 415.2 0C392 0 369 0 346 0C323 0 300 0 277 0C254 0 231 0 207.8 0C184.7 0 161.3 0 138.2 0C115 0 92 0 69 0C46 0 23 0 11.5 0L0 0Z" fill="#5b1218"></path><path d="M0 71L11.5 70.3C23 69.7 46 68.3 69 65.8C92 63.3 115 59.7 138.2 62.2C161.3 64.7 184.7 73.3 207.8 72.7C231 72 254 62 277 57.8C300 53.7 323 55.3 346 59.3C369 63.3 392 69.7 415.2 73C438.3 76.3 461.7 76.7 484.8 77C508 77.3 531 77.7 554 73.3C577 69 600 60 623 59.8C646 59.7 669 68.3 692.2 73C715.3 77.7 738.7 78.3 761.8 76.3C785 74.3 808 69.7 831 69.2C854 68.7 877 72.3 888.5 74.2L900 76L900 0L888.5 0C877 0 854 0 831 0C808 0 785 0 761.8 0C738.7 0 715.3 0 692.2 0C669 0 646 0 623 0C600 0 577 0 554 0C531 0 508 0 484.8 0C461.7 0 438.3 0 415.2 0C392 0 369 0 346 0C323 0 300 0 277 0C254 0 231 0 207.8 0C184.7 0 161.3 0 138.2 0C115 0 92 0 69 0C46 0 23 0 11.5 0L0 0Z" fill="#711423"></path><path d="M0 51L11.5 50.3C23 49.7 46 48.3 69 48.2C92 48 115 49 138.2 51C161.3 53 184.7 56 207.8 55.5C231 55 254 51 277 51.7C300 52.3 323 57.7 346 57.2C369 56.7 392 50.3 415.2 50C438.3 49.7 461.7 55.3 484.8 55C508 54.7 531 48.3 554 47.8C577 47.3 600 52.7 623 55C646 57.3 669 56.7 692.2 56.8C715.3 57 738.7 58 761.8 55.2C785 52.3 808 45.7 831 45C854 44.3 877 49.7 888.5 52.3L900 55L900 0L888.5 0C877 0 854 0 831 0C808 0 785 0 761.8 0C738.7 0 715.3 0 692.2 0C669 0 646 0 623 0C600 0 577 0 554 0C531 0 508 0 484.8 0C461.7 0 438.3 0 415.2 0C392 0 369 0 346 0C323 0 300 0 277 0C254 0 231 0 207.8 0C184.7 0 161.3 0 138.2 0C115 0 92 0 69 0C46 0 23 0 11.5 0L0 0Z" fill="#88152f"></path><path d="M0 44L11.5 42C23 40 46 36 69 32.8C92 29.7 115 27.3 138.2 28C161.3 28.7 184.7 32.3 207.8 33.7C231 35 254 34 277 35.2C300 36.3 323 39.7 346 40.8C369 42 392 41 415.2 40.8C438.3 40.7 461.7 41.3 484.8 38.8C508 36.3 531 30.7 554 31.3C577 32 600 39 623 41.5C646 44 669 42 692.2 40.8C715.3 39.7 738.7 39.3 761.8 36.7C785 34 808 29 831 26.8C854 24.7 877 25.3 888.5 25.7L900 26L900 0L888.5 0C877 0 854 0 831 0C808 0 785 0 761.8 0C738.7 0 715.3 0 692.2 0C669 0 646 0 623 0C600 0 577 0 554 0C531 0 508 0 484.8 0C461.7 0 438.3 0 415.2 0C392 0 369 0 346 0C323 0 300 0 277 0C254 0 231 0 207.8 0C184.7 0 161.3 0 138.2 0C115 0 92 0 69 0C46 0 23 0 11.5 0L0 0Z" fill="#9f163d"></path><path d="M0 21L11.5 21.5C23 22 46 23 69 22.3C92 21.7 115 19.3 138.2 19C161.3 18.7 184.7 20.3 207.8 21.3C231 22.3 254 22.7 277 22.3C300 22 323 21 346 20.7C369 20.3 392 20.7 415.2 20C438.3 19.3 461.7 17.7 484.8 18.8C508 20 531 24 554 24C577 24 600 20 623 19.2C646 18.3 669 20.7 692.2 21C715.3 21.3 738.7 19.7 761.8 18.2C785 16.7 808 15.3 831 14.3C854 13.3 877 12.7 888.5 12.3L900 12L900 0L888.5 0C877 0 854 0 831 0C808 0 785 0 761.8 0C738.7 0 715.3 0 692.2 0C669 0 646 0 623 0C600 0 577 0 554 0C531 0 508 0 484.8 0C461.7 0 438.3 0 415.2 0C392 0 369 0 346 0C323 0 300 0 277 0C254 0 231 0 207.8 0C184.7 0 161.3 0 138.2 0C115 0 92 0 69 0C46 0 23 0 11.5 0L0 0Z" fill="#b7154c"></path></svg>
